X: 32395
T: Piper's Beast, The
R: jig
M: 6/8
K: Aminor
|:A2B|cBA e2A|EAB cBA|GAB E^FG|BAG dcB|
AGF c2A|DFA cBA|ABA A2E|A3:|
|:e2^f|g^fe b2e|bc'b a2g|^fbf ebe|dbd Bde|
faf eae|dad ABc|cBA A2E|A3:|

